icons/svg/poi/hazard_erosion.svg

<?xml version="1.0" encoding="UTF-8" standalone="no"?>
<!-- Created with Inkscape (http://www.inkscape.org/) -->

<svg
   xmlns:dc="http://purl.org/dc/elements/1.1/"
   xmlns:cc="http://creativecommons.org/ns#"
   xmlns:rdf="http://www.w3.org/1999/02/22-rdf-syntax-ns#"
   xmlns:svg="http://www.w3.org/2000/svg"
   xmlns="http://www.w3.org/2000/svg"
   xmlns:sodipodi="http://sodipodi.sourceforge.net/DTD/sodipodi-0.dtd"
   xmlns:inkscape="http://www.inkscape.org/namespaces/inkscape"
   version="1.0"
   width="580"
   height="580"
   id="svg2"
   sodipodi:version="0.32"
   inkscape:version="0.91 r13725"
   sodipodi:docname="hazard_erosion.svg"
   inkscape:output_extension="org.inkscape.output.svg.inkscape">
  <metadata
     id="metadata10">
    <rdf:RDF>
      <cc:Work
         rdf:about="">
        <dc:format>image/svg+xml</dc:format>
        <dc:type
           rdf:resource="http://purl.org/dc/dcmitype/StillImage" />
        <cc:license
           rdf:resource="http://web.resource.org/cc/PublicDomain" />
        <dc:language>en</dc:language>
        <dc:title />
      </cc:Work>
    </rdf:RDF>
  </metadata>
  <sodipodi:namedview
     inkscape:window-height="1006"
     inkscape:window-width="1920"
     inkscape:pageshadow="2"
     inkscape:pageopacity="0.0"
     guidetolerance="10.0"
     gridtolerance="10.0"
     objecttolerance="10.0"
     borderopacity="1.0"
     bordercolor="#666666"
     pagecolor="#ffffff"
     id="base"
     showgrid="false"
     inkscape:zoom="0.70710678"
     inkscape:cx="237.59754"
     inkscape:cy="294.29395"
     inkscape:window-x="1920"
     inkscape:window-y="0"
     inkscape:current-layer="svg2"
     showguides="true"
     inkscape:guide-bbox="true"
     inkscape:window-maximized="1" />
  <defs
     id="defs4">
    <inkscape:perspective
       sodipodi:type="inkscape:persp3d"
       inkscape:vp_x="0 : 290 : 1"
       inkscape:vp_y="0 : 1000 : 0"
       inkscape:vp_z="580 : 290 : 1"
       inkscape:persp3d-origin="290 : 193.33333 : 1"
       id="perspective12" />
    <style
       type="text/css"
       id="style6">
   
    .fil0 {fill:#EF7900}
   
  </style>
    <inkscape:perspective
       id="perspective6807"
       inkscape:persp3d-origin="29.116032 : 19.410688 : 1"
       inkscape:vp_z="58.232063 : 29.116032 : 1"
       inkscape:vp_y="0 : 1000 : 0"
       inkscape:vp_x="0 : 29.116032 : 1"
       sodipodi:type="inkscape:persp3d" />
    <inkscape:perspective
       id="perspective6954"
       inkscape:persp3d-origin="290 : 193.33333 : 1"
       inkscape:vp_z="580 : 290 : 1"
       inkscape:vp_y="0 : 1000 : 0"
       inkscape:vp_x="0 : 290 : 1"
       sodipodi:type="inkscape:persp3d" />
    <inkscape:perspective
       id="perspective2541"
       inkscape:persp3d-origin="240 : 160 : 1"
       inkscape:vp_z="480 : 240 : 1"
       inkscape:vp_y="0 : 1000 : 0"
       inkscape:vp_x="0 : 240 : 1"
       sodipodi:type="inkscape:persp3d" />
    <inkscape:perspective
       id="perspective2750"
       inkscape:persp3d-origin="215 : 143.33333 : 1"
       inkscape:vp_z="430 : 215 : 1"
       inkscape:vp_y="0 : 1000 : 0"
       inkscape:vp_x="0 : 215 : 1"
       sodipodi:type="inkscape:persp3d" />
    <inkscape:perspective
       id="perspective2830"
       inkscape:persp3d-origin="0.5 : 0.33333333 : 1"
       inkscape:vp_z="1 : 0.5 : 1"
       inkscape:vp_y="0 : 1000 : 0"
       inkscape:vp_x="0 : 0.5 : 1"
       sodipodi:type="inkscape:persp3d" />
  </defs>
  <g
     id="g1327">
    <path
       d="M 66.275,1.768 C 24.94,1.768 1.704,23.139 1.704,66.804 L 1.704,516.927 C 1.704,557.771 22.598,579.156 63.896,579.156 L 515.92,579.156 C 557.227,579.156 578.149,558.84 578.149,516.927 L 578.149,66.804 C 578.149,24.203 557.227,1.768 514.627,1.768 C 514.624,1.768 66.133,1.625 66.275,1.768 z"
       style="fill:#111111;stroke:#eeeeee;stroke-width:3.40799999"
       id="path1329" />
  </g>
  <path
     style="fill:#ffffff;fill-opacity:1;stroke:none"
     d="m 341.86443,207.21544 -14.7992,8.26352 -13.59725,68.88768 c 0,0 7.28142,37.58709 -4.20688,62.65248 -11.48832,25.0654 0.0144,44.907 -40.7166,53.26213 -13.29398,2.72697 -34.61458,31.33129 -41.91857,39.74 -7.85136,9.03888 -9.64609,14.15306 -9.76597,19.00609 l 270.51749,0.30049 -145.51302,-252.11239 z"
     id="path3756"
     inkscape:connector-curvature="0" />
  <path
     style="color:#000000;display:inline;overflow:visible;visibility:visible;fill:#ffffff;fill-opacity:1;fill-rule:nonzero;stroke:none;stroke-width:28.30400085;marker:none;enable-background:accumulate"
     d="m 230.96106,399.25703 -34.46491,34.46491 -16.9338,-12.85575 -17.53111,-21.60916 5.75853,-24.32253 28.70638,-10.14238 20.77255,9.13229 z"
     id="path3758"
     inkscape:connector-curvature="0"
     sodipodi:nodetypes="cccccccc" />
  <path
     style="color:#000000;display:inline;overflow:visible;visibility:visible;fill:#ffffff;fill-opacity:1;fill-rule:nonzero;stroke:none;stroke-width:28.30400085;marker:none;enable-background:accumulate"
     d="m 283.45573,336.13022 -5.7847,17.4633 -23.45827,11.77967 -24.08365,-12.65122 -5.15929,-16.59175 9.49447,-21.56752 19.74847,-7.67542 z"
     id="path3760"
     inkscape:connector-curvature="0"
     sodipodi:nodetypes="cccccccc" />
  <circle
     r="9.9217167"
     cy="239.98741"
     cx="284.74722"
     style="color:#000000;display:inline;overflow:visible;visibility:visible;fill:#ffffff;fill-opacity:1;fill-rule:nonzero;stroke:none;stroke-width:28.30400085;marker:none;enable-background:accumulate"
     id="path3762" />
  <circle
     r="8.8773251"
     cy="191.94537"
     cx="310.85699"
     style="color:#000000;display:inline;overflow:visible;visibility:visible;fill:#ffffff;fill-opacity:1;fill-rule:nonzero;stroke:none;stroke-width:28.30400085;marker:none;enable-background:accumulate"
     id="path3764" />
  <path
     style="color:#000000;display:inline;overflow:visible;visibility:visible;fill:#ffffff;fill-opacity:1;fill-rule:nonzero;stroke:none;stroke-width:28.30400085;marker:none;enable-background:accumulate"
     d="m 261.34037,265.17338 -15.50841,15.50842 -6.41898,-1.38661 -9.08944,-14.12181 4.92662,-11.33749 10.5818,-4.17092 4.01973,0.52603 5.31659,2.59805 z"
     id="path3766"
     inkscape:connector-curvature="0"
     sodipodi:nodetypes="ccccccccc" />
  <path
     inkscape:connector-curvature="0"
     style="fill:#ffffff;fill-opacity:1;fill-rule:evenodd;stroke:none"
     d="m 292.5625,39.988278 a 56.357442,56.358974 0 0 0 -5.67383,0.01563 56.357442,56.358974 0 0 0 -45.80664,28.117189 L 26.300781,440.04102 a 56.357442,56.358974 0 0 0 48.753907,84.51757 l 429.781252,0.32813 a 56.357442,56.358974 0 0 0 48.86328,-84.51758 l -215,-372.248048 A 56.357442,56.358974 0 0 0 292.5625,39.988278 Z m 0.0566,46.441408 c 8.20067,0.05801 17.57617,18.167974 17.57617,18.167974 l 197.82422,342.67578 c 0,0 7.43371,15.49359 3.20899,23.08398 -4.22471,7.59039 -16.38672,8.02344 -16.38672,8.02344 L 94.367188,477.96484 c 0,0 -15.29513,0.17409 -19.5,-6.9414 -4.20487,-7.11549 0.673828,-20.83985 0.673828,-20.83985 L 275.74219,103.39062 c 0,0 8.67628,-17.018947 16.87695,-16.960934 z"
     id="path2990" />
</svg>

<svg width="580" height="580" viewBox="0 0 580 580" fill="none" xmlns="http://www.w3.org/2000/svg">
<g clip-path="url(#clip0)">
<path d="M66.2751 1.76815C24.9401 1.76815 1.7041 23.1391 1.7041 66.8041V516.927C1.7041 557.771 22.5981 579.156 63.8961 579.156H515.92C557.227 579.156 578.149 558.84 578.149 516.927V66.8041C578.149 24.2031 557.227 1.76815 514.627 1.76815C514.624 1.76815 66.1331 1.62515 66.2751 1.76815Z" fill="#111111" stroke="#EEEEEE" stroke-width="3.408"/>
<path d="M341.864 207.215L327.065 215.479L313.468 284.367C313.468 284.367 320.749 321.954 309.261 347.019C297.773 372.084 309.275 391.926 268.544 400.281C255.25 403.008 233.93 431.612 226.626 440.021C218.774 449.06 216.98 454.174 216.86 459.027L487.377 459.328L341.864 207.215V207.215Z" fill="white"/>
<path d="M230.961 399.257L196.496 433.722L179.562 420.866L162.031 399.257L167.79 374.934L196.496 364.792L217.269 373.924L230.961 399.257Z" fill="white"/>
<path d="M283.456 336.13L277.671 353.593L254.213 365.373L230.129 352.722L224.97 336.13L234.464 314.563L254.213 306.887L283.456 336.13Z" fill="white"/>
<path d="M284.747 249.909C290.227 249.909 294.669 245.467 294.669 239.988C294.669 234.508 290.227 230.066 284.747 230.066C279.268 230.066 274.825 234.508 274.825 239.988C274.825 245.467 279.268 249.909 284.747 249.909Z" fill="white"/>
<path d="M310.857 200.823C315.76 200.823 319.734 196.848 319.734 191.945C319.734 187.042 315.76 183.068 310.857 183.068C305.954 183.068 301.98 187.042 301.98 191.945C301.98 196.848 305.954 200.823 310.857 200.823Z" fill="white"/>
<path d="M261.34 265.173L245.832 280.682L239.413 279.295L230.323 265.173L235.25 253.836L245.832 249.665L249.852 250.191L255.168 252.789L261.34 265.173Z" fill="white"/>
<path fill-rule="evenodd" clip-rule="evenodd" d="M292.563 39.9882C290.672 39.8981 288.779 39.9033 286.889 40.0038C277.516 40.5052 268.417 43.3397 260.418 48.2499C252.418 53.1601 245.772 59.9905 241.082 68.121L26.3009 440.041C21.3619 448.604 18.7621 458.316 18.7625 468.201C18.7628 478.087 21.3632 487.798 26.3027 496.361C31.2422 504.924 38.347 512.037 46.9041 516.986C55.4612 521.936 65.1696 524.547 75.0548 524.558L504.836 524.887C514.731 524.894 524.453 522.297 533.025 517.356C541.597 512.414 548.718 505.303 553.67 496.737C558.623 488.171 561.233 478.452 561.238 468.557C561.243 458.662 558.643 448.94 553.699 440.369L338.699 68.121C333.981 59.9422 327.284 53.0799 319.223 48.1643C311.161 43.2486 301.994 40.4372 292.563 39.9882V39.9882ZM292.619 86.4296C300.82 86.4876 310.195 104.598 310.195 104.598L508.02 447.273C508.02 447.273 515.453 462.767 511.229 470.357C507.004 477.948 494.842 478.381 494.842 478.381L94.3673 477.965C94.3673 477.965 79.0722 478.139 74.8673 471.023C70.6624 463.908 75.5411 450.183 75.5411 450.183L275.742 103.391C275.742 103.391 284.419 86.3716 292.619 86.4296H292.619Z" fill="white"/>
</g>
<defs>
<clipPath id="clip0">
<path d="M0 0H580V580H0V0Z" fill="white"/>
</clipPath>
</defs>
</svg>
